X: 171
Q: "Maestoso, man non troppo lento."
M: 3/4
L: 1/4
K: G
[|\
(Bc)d & (GA)B | (dc)B & (BA)G | BAz & GFx | G2G & B,2B, | (GF)G & (B,A,)B, |
(AG)A & ([FD]E)F | B2z & G2x | B2B & G2G | (Bc)d & (GA)B | (dc)B & (BA)G | BAz & GFx | A2c & F2A |
(cB)A & (AG)F | B2c & G2A | d3 & B3 | e2e & c2c | (dc)B & (BA)G | (cB)A & (AG)F | G2z & G2x |]


